images/ICONOS/INFO/TELEFONO.svg

<svg width="10" height="16" viewBox="0 0 10 16" fill="none" xmlns="http://www.w3.org/2000/svg">
<path d="M6.70602 10.4955L6.29005 10.6682C6.29005 10.6682 5.30057 11.0775 4.21082 8.36545C3.12108 5.65336 4.11056 5.24398 4.11056 5.24398L4.37237 5.13466C5.0182 4.86769 5.37036 4.15043 5.20054 3.4469L4.85381 2.01C4.64344 1.13906 3.73451 0.653304 2.93488 0.984488L1.50042 1.57806C1.10431 1.74291 0.765382 2.02846 0.617881 2.44206C0.240589 3.50087 -0.23448 5.91937 1.24183 9.5949C2.8082 13.4924 5.31777 14.6765 6.40414 15.0167C6.74821 15.1246 7.10733 15.0746 7.43753 14.9373L8.73523 14.3997C9.61211 14.0374 9.88712 12.8987 9.28243 12.1328L8.34232 10.9404C7.94548 10.4375 7.28164 10.2574 6.70602 10.4955Z" fill="white"/>
</svg>

<svg width="10" height="16" fill="none" xmlns="http://www.w3.org/2000/svg"><path d="m6.706 10.495-.416.173s-.99.41-2.08-2.303c-1.089-2.712-.1-3.121-.1-3.121l.262-.11c.646-.266.998-.984.829-1.687L4.854 2.01c-.21-.87-1.12-1.357-1.92-1.026L1.5 1.578c-.396.165-.735.45-.882.864-.377 1.059-.852 3.477.624 7.153 1.566 3.897 4.076 5.082 5.162 5.422.344.108.703.058 1.034-.08l1.297-.537c.877-.363 1.152-1.501.547-2.267l-.94-1.193a1.4 1.4 0 0 0-1.636-.444Z" fill="#fff"/></svg>
